src/24/panel/cryptkeeper.svg

<svg xmlns="http://www.w3.org/2000/svg" width="24" height="24" version="1.1">
 <defs>
  <style id="current-color-scheme" type="text/css">
   .ColorScheme-Text { color:#dfdfdf; } .ColorScheme-Highlight { color:#4285f4; }
  </style>
 </defs>
 <g>
  <path style="fill:currentColor" class="ColorScheme-Text" d="M 14.5,4 A 5.5,5.5 0 0 0 9,9.5 5.5,5.5 0 0 0 14.5,15 5.5,5.5 0 0 0 20,9.5 5.5,5.5 0 0 0 14.5,4 Z m 0.322,2.4727 a 2.5,2 45 0 1 1.856,0.8496 2.5,2 45 0 1 0.353,3.1816 A 2.5,2 45 0 1 13.85,10.1504 2.5,2 45 0 1 13.496,6.9688 2.5,2 45 0 1 14.822,6.4727 Z M 8.2656,11.32 4.293,15.293 A 1.0001,1.0001 0 0 0 4,16 l 0,3 a 1.0001,1.0001 0 0 0 1,1 l 3,0 a 1.0001,1.0001 0 0 0 1,-1 l 0,-2 2,0 a 1.0001,1.0001 0 0 0 1,-1 l 0,-0.504 C 11.227,15.172 10.53,14.702 9.9414,14.121 l -3.4102,3.41 A 0.75063,0.75063 0 0 1 5.4688,16.471 L 8.998,12.941 C 8.6839,12.442 8.4353,11.898 8.2656,11.32 Z"/>
 </g>
</svg>

<svg xmlns="http://www.w3.org/2000/svg" width="24" height="24"><defs><style id="current-color-scheme" type="text/css"></style></defs><path d="M14.5 4A5.5 5.5 0 0 0 9 9.5a5.5 5.5 0 0 0 5.5 5.5A5.5 5.5 0 0 0 20 9.5 5.5 5.5 0 0 0 14.5 4zm.322 2.473a2.5 2 45 0 1 1.856.85 2.5 2 45 0 1 .353 3.18 2.5 2 45 0 1-3.181-.353 2.5 2 45 0 1-.354-3.181 2.5 2 45 0 1 1.326-.496zM8.266 11.32l-3.973 3.973A1 1 0 0 0 4 16v3a1 1 0 0 0 1 1h3a1 1 0 0 0 1-1v-2h2a1 1 0 0 0 1-1v-.504a6.521 6.521 0 0 1-2.059-1.375l-3.41 3.41a.75.75 0 0 1-1.062-1.06l3.529-3.53a6.457 6.457 0 0 1-.732-1.621z" fill="currentColor" color="#bebebe"/></svg>
